X:1
T:Shortle, 88.6 D repeat
T:Charles Gourlay Goodrich, 1905
T:Shortle, 88.6 D repeat
T:Public Domain
C:Charles Gourlay Goodrich, 1905
Z:Public Domain
%%score ( 1 2 ) ( 3 4 )
L:1/8
M:4/4
K:C
V:1 treble 
V:2 treble 
V:3 bass 
V:4 bass 
V:1
 (CE) | G2 [CG]2 [FA]2 [FB]2 | [Ec]3 [EG] [EG]2 (EG) | A2 [DA]2 [FB]2 [Ec]2 | %4
 [Fd]3 [DG] [DG]2 [Gc]2 | [GB]2 [DG]2 E2 z B x | G6 (GE) | C2 [CE]2 [CG]2 [E^G]2 | %8
 [FB]3 [FA] [FA]2 (AF) | D2 [DF]2 [DA]2 [Fd]2 | [Fe]3 [Fd] [Fd]2 [GB]2 | [Gc]2 G2 [FB]2 [FA]2 | %12
 [DG]2 C2 [DG]2 [DF]2 | [CE]4 (C2 B,2) | C6 |] %15
V:2
 x2 | G2 x6 | x8 | A2 x6 | x8 | x4 A3 ^F2 | G6 x2 | C2 x6 | x8 | D2 x6 | x8 | x2 G2 x4 | x2 C2 x4 | %13
 x4 D4 | C6 |] %15
V:3
 (C,E,) | G,2 [E,G,]2 [D,G,]2 [G,,G,]2 | [C,G,]3 [C,C] [C,C]2 (E,G,) | %3
 A,2 [F,A,]2 [D,G,]2 [C,G,]2 | [B,,G,]3 [F,B,] [F,B,]2 [E,C]2 | [D,D]2 [D,B,]2 C2 z D, x | %6
 [G,B,]6 (G,E,) | C,2 [G,C]2 [E,C]2 [C,C]2 | [F,C]3 [F,C] [F,C]2 (A,F,) | %9
 D,2 [A,D]2 [F,D]2 [D,A,]2 | [G,B,]3 [G,B,] [G,B,]2 [F,D]2 | [E,C]2 [E,C]2 [F,C]2 [F,C]2 | %12
 [F,B,]2 [E,G,]2 [D,A,]2 [F,A,]2 | G,4 (G,2 F,2) | [C,E,]6 |] %15
V:4
 x2 | G,2 x6 | x8 | A,2 x6 | x8 | x4 D,3 D2 | x8 | C,2 x6 | x8 | D,2 x6 | x8 | x8 | x8 | G,4 G,,4 | %14
 x6 |] %15

